X: 0
T: Jamie Allen
C: James Allen
L: 1/8
K: Gmaj
M: 2/4
G>A|:"G"BG GA | B2 GA/B/ |"Am"c/B/A AB |"C"cd/c/ "D"BA |
"G"Gg ge | d2 B>c |"D"dd c/B/A |1"G"G2 G>A:|2"G"G2 B>A||
|:"G"Gg gf |"C"ed cB |"Am"Aa ag |"D"fd ef | 
"Em"g>a g/f/e |"D"d2 B>c | dd c/B/A |1"G"G2 B>A:|2"G"G4|]